assets/medical-grey/MedicalGrey7.svg

<svg xmlns="http://www.w3.org/2000/svg" id="icons" viewBox="0 0 64 64"><defs><style>.cls-1{fill:none;stroke:#000;stroke-linecap:round;stroke-linejoin:round;stroke-width:2px}</style></defs><g id="clipboard"><path d="M50.12 13.34v44.6H13.88v-44.6h10.06v3.72h16.08v-3.72h10.1zM20.85 51.31h22.12M20.85 45.84h22.12M20.85 39.77h22.12M32 22.54v12.28M38.61 28.38H25.39" class="cls-1"/><path d="M40 9.56v7.5H23.94v-7.5h4.3a3.77 3.77 0 017.52 0z" class="cls-1"/></g></svg>

<svg xmlns="http://www.w3.org/2000/svg" id="icons" viewBox="0 0 64 64"><defs><style>.cls-1{fill:none;stroke:#000;stroke-linecap:round;stroke-linejoin:round;stroke-width:2px;}</style></defs><g id="clipboard"><path d="M50.12 13.34 50.12 57.94 13.88 57.94 13.88 13.34 23.94 13.34 23.94 17.06 40.02 17.06 40.02 13.34 50.12 13.34z" class="cls-1"/><path d="M20.85 51.31 42.97 51.31" class="cls-1"/><path d="M20.85 45.84 42.97 45.84" class="cls-1"/><path d="M20.85 39.77 42.97 39.77" class="cls-1"/><path d="M32 22.54 32 34.82" class="cls-1"/><path d="M38.61 28.38 25.39 28.38" class="cls-1"/><path d="M40 9.56v7.5H23.94v-7.5h4.3a3.77 3.77 0 0 1 7.52 0z" class="cls-1"/></g></svg>
